X:1
T:Title
%%score { ( 1 3 4 ) | 2 }
L:1/8
Q:1/4=100
M:4/4
K:Ab
V:1 treble nm="Grand Piano"
V:3 treble 
V:4 treble 
V:2 bass 
V:1
 A>A F>F A>A F2 | A>A F>F =E>F G2 | B>B G>G B>B G2 | B>B G>G A>B c2 | A>A F>F A>A F2 | %5
w: ????~?????? * * * * * *|||||
 A>A F>F =E>F G2 | B>B G>G B>B G2 | B>B G>G A>B c2 | d>d B>B c>c A>A | B>B G>G A>B c2 | %10
w: |||||
 d>d B>B c>c A>A | B>B G>B A>G F2 |[M:3/4][Q:1/4=124] c4 z2 | c4 z2 | B4 z2 | F6 | z2 z2 F2 | %17
w: |||||||
 G2 A2 B2 | e4 z2 | c6 | c4 z2 | c4 z2 | B4 z2 | F6 | z2 z2 F2 | G2 A2 B2 | e4 z2 | c6 | d4 z2 | %29
w: ||||||||||||
 z2 z2 B2 | c4 z2 | A6 | B4 z2 | z2 z2 G2 | A4 z2 | c6 | d4 z2 | z2 z2 B2 | c4 z2 | A6 | B4 z2 | %41
w: ||||||||||||
 z2 z2 G2 | A4 G2 | F6 |] %44
w: |||
V:2
 F,2 [A,C]2 C,2 [A,C]2 | F,2 [A,C]2 C,2 [G,B,]2 | C,2 [G,B,]2 =E,2 [G,B,]2 | %3
 C,2 [G,B,]2 F,2 [A,C]2 | F,2 [A,C]2 C,2 [A,C]2 | F,2 [A,C]2 C,2 [G,B,]2 | %6
 C,2 [G,B,]2 =E,2 [G,B,]2 | C,2 [G,B,]2 F,2 [A,C]2 | F,2 [B,D]2 F,2 [A,C]2 | %9
 =E,2 [B,C]2 F,2 [A,C]2 | F,2 [B,D]2 F,2 [A,C]2 | =E,2 [B,C]2 E,2 [F,A,C]2 |[M:3/4] F,2 A,4 | %13
 F,2 A,4 | =E,2 B,4 | F,2 A,2 A,2 | =E,2 B,4 | =E,2 [B,C]4 | G,2 B,4 | F,2 A,2 A,2 | F,2 A,4 | %21
 F,2 A,4 | =E,2 B,4 | F,2 A,2 A,2 | =E,2 B,4 | =E,2 [B,C]4 | G,2 B,4 | F,2 A,2 A,2 | F,2 B,4 | %29
 F,2 B,4 | F,2 A,4 | F,2 A,2 A,2 | =E,2 B,4 | =E,2 B,4 | F,2 A,2 [A,C]2 | F,2 A,2 A,2 | F,2 B,4 | %37
 F,2 B,4 | F,2 A,4 | F,2 A,2 A,2 | =E,2 B,4 | =E,2 B,4 | =E,2 C4 | [F,A,C]6 |] %44
V:3
 x8 | x8 | x8 | x8 | x8 | x8 | x8 | x8 | x8 | x8 | x8 | x8 |[M:3/4] z2 z2 _c2 | z2 z2 G2 | %14
 z2 z2 A2 | z2 C2 C2 | =E4 z2 | x6 | z2 z2 d2 | z2 C2 C2 | z2 z2 _c2 | z2 z2 G2 | z2 z2 A2 | %23
 z2 C2 C2 | =E4 z2 | x6 | z2 z2 d2 | z2 C2 C2 | z2 z2 c2 | B4 z2 | z2 z2 B2 | z2 C2 C2 | z2 z2 A2 | %33
 G4 z2 | z2 C2 B2 | z2 C2 C2 | z2 z2 c2 | B4 z2 | z2 z2 B2 | z2 C2 C2 | z2 z2 A2 | G4 z2 | x6 | %43
 x6 |] %44
V:4
 x8 | x8 | x8 | x8 | x8 | x8 | x8 | x8 | x8 | x8 | x8 | x8 |[M:3/4] z2 C4 | z2 C4 | z2 C4 | x6 | %16
 z2 C4 | x6 | z2 D4 | x6 | z2 C4 | z2 C4 | z2 C4 | x6 | z2 C4 | x6 | z2 D4 | x6 | z2 D4 | z2 D4 | %30
 z2 C4 | x6 | z2 C4 | z2 C4 | x6 | x6 | z2 D4 | z2 D4 | z2 C4 | x6 | z2 C4 | z2 C4 | x6 | x6 |] %44

